modules/themify-icons/icons/layout-list-large-image.svg

<?xml version="1.0" encoding="utf-8"?>
<!-- Generated by IcoMoon.io -->
<!DOCTYPE svg PUBLIC "-//W3C//DTD SVG 1.1//EN" "http://www.w3.org/Graphics/SVG/1.1/DTD/svg11.dtd">
<svg version="1.1" xmlns="http://www.w3.org/2000/svg" xmlns:xlink="http://www.w3.org/1999/xlink" width="17" height="17" viewBox="0 0 17 17">
<g>
</g>
	<path d="M16.497 5h-2.497v-1h2.497v1zM15.499 7.996h-1.499v1h1.499v-1zM14.004 5.998v1h2.996v-1h-2.996zM14 10.993h2.996v-1h-2.996v1zM14 13h2.497v-1h-2.497v1zM0 4h13v9h-13v-9zM1 12h11v-7h-11v7z" fill="#000000" />
</svg>

<svg xmlns="http://www.w3.org/2000/svg" width="17" height="17"><path d="M16.497 5H14V4h2.497v1zm-.998 2.996H14v1h1.499v-1zm-1.495-1.998v1H17v-1h-2.996zM14 10.993h2.996v-1H14v1zM14 13h2.497v-1H14v1zM0 4h13v9H0V4zm1 8h11V5H1v7z"/></svg>
